source/svgs/bowtie/uE9D7-format-font-size.svg

<svg xmlns="http://www.w3.org/2000/svg" viewBox="0 0 448 448" enable-background="new 0 0 448 448"><path d="M264.428 384h-38.545l-31.501-89.708h-125.996l-29.633 89.708h-38.753l113.978-320h36.059l114.391 320zm-84.454-126.639l-52.304-155.172-48.995 155.172h101.299zm268.026 121.373h-33.427v-35.119h-.816c-14.535 26.928-35.933 40.385-64.202 40.385-20.79 0-37.066-5.926-48.826-17.779-11.741-11.849-17.622-27.585-17.622-47.186 0-41.989 22.97-66.435 68.893-73.305l62.573-9.439c0-38.189-14.33-57.283-43.005-57.283-25.133 0-47.837 9.218-68.077 27.654v-36.872c20.522-14.048 44.166-21.071 70.928-21.071 49.059 0 73.581 27.941 73.581 83.841v146.174zm-33.427-113.69l-50.342 7.462c-15.491 2.348-27.171 6.483-35.059 12.392-7.885 5.944-11.821 16.427-11.821 31.502 0 10.974 3.638 19.94 10.912 26.88 7.261 6.953 16.947 10.432 29.037 10.432 16.573 0 30.259-6.244 41.078-18.771 10.787-12.496 16.195-28.349 16.195-47.511v-22.386z"/></svg>

<svg xmlns="http://www.w3.org/2000/svg" viewBox="0 0 448 448"><path d="M264.428 384h-38.545l-31.501-89.708H68.386L38.753 384H0L113.978 64h36.059l114.391 320zm-84.454-126.639L127.67 102.189 78.675 257.361h101.299zM448 378.734h-33.427v-35.119h-.816C399.222 370.543 377.824 384 349.555 384c-20.79 0-37.066-5.926-48.826-17.779-11.741-11.849-17.622-27.585-17.622-47.186 0-41.989 22.97-66.435 68.893-73.305l62.573-9.439c0-38.189-14.33-57.283-43.005-57.283-25.133 0-47.837 9.218-68.077 27.654V169.79c20.522-14.048 44.166-21.071 70.928-21.071 49.059 0 73.581 27.941 73.581 83.841v146.174zm-33.427-113.69l-50.342 7.462c-15.491 2.348-27.171 6.483-35.059 12.392-7.885 5.944-11.821 16.427-11.821 31.502 0 10.974 3.638 19.94 10.912 26.88 7.261 6.953 16.947 10.432 29.037 10.432 16.573 0 30.259-6.244 41.078-18.771 10.787-12.496 16.195-28.349 16.195-47.511v-22.386z"/></svg>
